X:1
T:35
L:1/8
Q:1/4=100
M:2/4
K:D
V:1 treble nm="Piano" snm="Pno."
V:1
 DE/F/ GA | BG d2 | d/c/e/d/ c/d/B/c/ | A2 F2 | z/ A/^G/A/ FD | EF =G2- | G/F/G/F/ E/F/D/E/ | %7
 C2 A2 | z D A2 | z E A2 | z F A2 | z/ A/^G/A/ FE | DE/F/ =GA | BG d2 | d/c/f/e/ d/c/B/c/ | %15
 d2 D2 |] %16

